X:1
T:Title
%%score [ ( 1 2 ) ( 3 4 ) ( 5 6 7 ) ( 8 9 ) ]
L:1/8
Q:1/4=76
M:4/4
K:Ab
V:1 treble nm="S"
V:2 treble 
V:3 treble nm="A"
V:4 treble 
V:5 treble-8 nm="T"
V:6 treble-8 
V:7 treble-8 
V:8 bass nm="B"
V:9 bass 
V:1
"^Adagio ma non tropo"!p!!<(! (A4 A>B c!<)!B |!>(! A4) (G2 FG)!>)! | !breath!A8 | (A3 B c2 d2) | %4
w: Ro _ _ _ _|_ di _ _|vsi|pje _ _ _|
 c2 z2 z2 AB | c4 (cd) B2 |!<(! c4 (de!<)! f2) | !breath!e6!pp! e2 | (e3 d GA B2 | %9
w: san po- gre-|be- ni- * ju|tvo- je- * *|mu pri-|no _ _ _ _|
 c4 d2)"^dim." B2 | A4!>(! (e>dcd)!>)! | c8 ||"^Solo" A4 !>!c2 B2 ||[M:3/4] A2 !breath!G2 B2 || %14
w: _ _ sjat|Hri- ste- * * *|moj!|Snem sdre va|i- že- ot|
[M:4/4] F4 F2 E2 ||[M:2/4] ((A>B) c2) ||[M:4/4] A6"^Tutti" AB | (c2 d2 c2) B2 | %18
w: a- ri- ma|te _ _|ja pla- šča-|ni- * * ce-|
!<(!!<(! c4 (de!<)!!<)! f2) |!>(!!>(! !breath!e6!>)!!>)! e2 | (!>!e3 d cd) B2 | %21
w: ju ob- * *|viv- vo|gro _ _ _ bje|
!<(! (c4!<)! !breath!d2) B2 |"^dim." A4!<)!!<(!!>(! (e>dc!>)!d) | !fermata!c8 ||[M:2/4] z4 || %25
w: tja _ po-|gre- ba- * * *|et.||
[M:4/4] z8 | z8 ||[M:2/4] z4 ||[M:4/4] (ABcd) c2 B2 | (c>ded) c2 B2 |!<(! c4 (de!<)! f2) | %31
w: |||mi- * * * ra te-|bje _ _ _ _ _|Hri- ste * *|
!>(! !breath!e6!>)!!pp! c2 | (B2 A2 G A B2) | (c4 d2)"^dim." B2 | A4!>(! (e>dc!>)!d) | c8 || %36
w: moj, no-|sja _ _ _ _|šči- * ja|pre- mu- * * *|dro.|
"^Solo" A4 c2 B2 ||[M:2/4] (AG) (FE) ||[M:4/4] (A3 B c2 Bc) | A6"^Tutti" z2 | z8 | z8 | z8 | z8 | %44
w: Jo- si- fe|pre- * bla- *|že- * * * *|ne|||||
 z8 | z8 ||"^Solo" z2!<(! A4 G2!<)! | !>!B4!>(! F2 !breath!E2!>)! | A4!>(! B2 c2 | %49
w: ||O slad-|čaj- ša- ja|mo- ja ve-|
 A6!>)!"^Tutti" (AB) | (c2 ed) (cd) B2 |!<(! (c3 d)!<)! !breath!e2 f2 | !breath!e8 | f4 d2 B2 | %54
w: sno, slad- *|čaj- * * ša- * je|mo- * je ča-|do|gdje tvo- ja|
!<(! (c4 !breath!d2)!<)! B2 |!<(! A4!<)!"^rall."!>(! (e>dc!>)!d) | c8 |] %57
w: zaj _ de|do- bro _ _ _|ta.|
V:2
 x8 | x8 | x8 | x8 | x8 | x8 | x8 | x6 c2 | B2 A2 x cd x | x8 | x8 | x8 || x8 ||[M:3/4] x6 || %14
w: ||||||||||||||
[M:4/4] x8 ||[M:2/4] x4 ||[M:4/4] x8 | x8 | x8 | x8 | x8 | x8 | x8 | x8 ||[M:2/4] x4 ||[M:4/4] x8 | %26
w: ||||||||||||
 x8 ||[M:2/4] x4 ||[M:4/4] x8 | x8 | x8 | x6 e2 | [ed]3 x cd x2 | x8 | x8 | x8 || x8 || %37
w: |||||no||||||
[M:2/4] x4 ||[M:4/4] x8 | x8 | x8 | x8 | x8 | x8 | x8 | x8 || x8 | x8 | x8 | x8 | x8 | x8 | x8 | %53
w: ||||||||||||||||
 x8 | x8 | x8 | x8 |] %57
w: ||||
V:3
!<(! z8!<)! |!>(! x8!>)! | x8 | x8 | x8 | x8 | x8 | x8 | x8 |!<(! x8!<)! | x8 | x8 || z8 || %13
[M:3/4] z6 ||[M:4/4] z8 ||[M:2/4] z4 ||[M:4/4] x8 | x8 |!<(! x8!<)! |!>(! x8!>)! | x8 | x8 | x8 | %23
 x8 ||[M:2/4] z4 ||[M:4/4] z8 | z8 ||[M:2/4] z4 ||[M:4/4] x8 | x8 |!<(! x8!<)! |!>(! x8!>)! | x8 | %33
 x8 | x8 | x8 ||"^Solo" x8 ||[M:2/4] x4 ||[M:4/4] x8 | x8 | z8 | z8 |!<(! z8 | z8!<)! | z8 | z8 || %46
 z8 | z8 | z8 | x8 | x8 | x8 | x8 | x8 | x8 | x8 | x8 |] %57
V:4
 x8 | z4 E2 D2 | !breath!C8 | (A2 FG A4) | A2 z2 z4 | EE A2 A2 E2 | (E2 A2) A4 | %7
w: |Ro di|vsi|pje _ _ _|san|po- gre- be- ni- ju|tvo- * je-|
 !breath!G6!pp! A2 | (G2 F2 EF G2 | A4 AB) G2 | (E2 F2)!>(! G4!>)! | A8 || x8 ||[M:3/4] x6 || %14
w: mu pri-|no _ _ _ _|_ _ _ sjat|Hri- * ste-|moj!|||
[M:4/4] x8 ||[M:2/4] x4 ||[M:4/4] z2 z4 CE | (A2 F2 EF) G2 | A4 A4 | !breath!A6 _G2 | !>!_G6 F2 | %21
w: ||pla- šča-|ni- * * * ce-|ju ob-|viv- vo|gro bje|
 !breath!=E6 E2 | F4 G4 | !fermata!A8 ||[M:2/4] x4 ||[M:4/4] x8 | x8 ||[M:2/4] x4 || %28
w: tja po-|gre- ba-|et.|||||
[M:4/4] (CEAF) EF G2 | A6 G2 | A4 A4 | !breath!G6 A2 | (G2 F2 EF G2) | (A4 AB) G2 | %34
w: mi- * * * ra * te-|bje _|Hri- ste|moj, no-|sja _ _ _ _|šči- * * ja|
 (E2 F2)!>(! G4!>)! | A8 || (A2 F2) E2 D2 ||[M:2/4] C2 D2 ||[M:4/4] (C3 D E2 DE) | C6 z2 | x8 | %41
w: pre- * mu-|dro.|Jo- * si- fe|pre- bla-|že- * * * *|ne||
 x8 | x8 | x8 | x8 | x8 || x8 | x8 | x8 | z4 z2 (FG) | (A2 cB) A2 (FG) | A4 !breath!A2 (AB) | %52
w: ||||||||slad- *|čaj- * * ša- je *|mo- je ča- *|
 !breath!c8 | (A2 =A2) B2 G2 | (G2 F2 !breath!=E2) G2 | F2 A2 (G2 FG) | A8 |] %57
w: do|gdje * tvo- ja|zaj _ _ de|do- * bro _ _|ta.|
V:5
!p! x8 | x8 | x8 | x8 | x8 | x8 | x8 | x8 | x8 | x8 | x8 | x8 || x8 ||[M:3/4] x6 ||[M:4/4] x8 || %15
[M:2/4] x4 ||[M:4/4] x8 | x8 |!<(! x8!<)! |!>(! x8!>)! | x8 | x8 | x8 | x8 ||[M:2/4] x4 || %25
[M:4/4] x8 | x8 ||[M:2/4] x4 ||[M:4/4] z8 | x8 |!<(! x8!<)! | x8 | x8 |!<(! x8!<)! |!p! x8 | x8 || %36
 z8 ||[M:2/4] z4 ||[M:4/4] z8 | x8 | x8 |!>(! x8!>)! | x8 | x8 |"^rit." x8 | x8 || x8 | x8 | x8 | %49
 x8 | x8 | x8 | x8 | x8 | x8 | x8 | x8 |] %57
V:6
 (A4 A>B cB | A4) (B2 AB) | !breath!E8 | (c2 d2 e2 f2) | !breath!e2 cd e4- | e4 f2 d2 | %6
w: Ro _ _ _ _|_ di _ _|vsi|pje _ _ _|san po- gre- be-|* ni- ju|
 (c2 e2) (dc B2) | B6 z2 | z2!p! A2 (e3 (d) | c2 e2 d2) e2 | (A2 d2)!>(! B4!>)! | A8 || %12
w: tvo- * je- * *|mu|pri- no _|_ _ _ sjat|Hri- * ste-|moj!|
 z2"^Solo" f2 !>!e2 d2 ||[M:3/4] c2 !breath!e2 d2 ||[M:4/4] (d2 cB) (A>B) c2 ||[M:2/4] (f2 e2) || %16
w: Snem sdre va|i- že- ot|a- * * ri- * ma|te _|
[M:4/4] c6 z2 | z4!mf! AA B2 | A2 e2 (dc B2) | !breath!c6 B2 | !>!=A6 B2 | (G2 A2 !breath!B2) d2 | %22
w: ja|pla- šča- ni-|ce- ju ob- * *|viv- vo|gro bje|tja _ _ po-|
 (c2 d2) B4 | !fermata!A8 ||[M:2/4] z2!p! AG ||[M:4/4] !>!B4"^dim." F2 E2 | (A>B c2) G4 || %27
w: gre- * ba-|et.|Mi- ro|no- si- ci|pri- * * do-|
[M:2/4] A4 ||[M:4/4] x8 | (e6 d2 | c2 e2) (dc B2) | B6 z2 | z2!p! A2 (e3 d | c2) e2 (d2 e2) | %34
w: ša||Hri- _|_ _ ste * *|moj,|no- sja _|_ šči- ja *|
 (A2 d2)!>(! B4!>)! | A8 || x8 ||[M:2/4] x4 ||[M:4/4] x8 | z4 z2!p! AA | A4 (B!<(! c d2)!<)! | %41
w: pre- * mu-|dro.||||po- gre-|bi- tje- * *|
 !breath!c6 (B2 | =A BcB A2 B2 | G2 _A2 !breath!B2)"^dim." G2 | F4 (e>dcd) | [Ac]8 || %46
w: lo Hri-|sta _ _ _ _ _|_ _ _ ži-|zno- * * * *|ca.|
 z2"^Solo"!<(! (c2 f2) e2!<)! | !>!d4!>(! d2 !breath!d2!>)! | c4 d2 e2 | c6 f2 | f4 e2 d2 | %51
w: O _ slad-|čaj- ša- ja|mo- ja ve-|sno, slad-|čaj- ša- je|
 e4 !breath!e2 (fg) | !breath!a8 | f4 f2 f2 | (=e2 fc !breath!B2) d2 | (c2 =B2) (c3/2 _B/ AB) | %56
w: mo- je ča- *|do|gdje tvo- ja|zaj _ _ _ de|do- * bro _ _ _|
 [ce]8 |] %57
w: ta.|
V:7
 x8 | x8 | x8 | x8 | x8 | x8 | x8 | x8 | x8 | x8 | x8 | x8 || x8 ||[M:3/4] x6 ||[M:4/4] x8 || %15
w: |||||||||||||||
[M:2/4] x4 ||[M:4/4] x8 | x8 | x8 | x8 | x8 | x8 | x8 | x8 ||[M:2/4] x4 ||[M:4/4] x8 | %26
w: |||||||||||
 x4 (c2 B2) ||[M:2/4] x4 ||[M:4/4] x8 | x8 | x8 | x8 | x8 | x8 | x8 | x8 || x8 ||[M:2/4] x4 || %38
w: ||||||||||||
[M:4/4] x8 | x7 B | c4 (de f2) | e6 (e2 | e3 d cd x2 | c4 d2) B2 | A4 G4 | x8 || x8 | x8 | x8 | %49
w: ||||||* dav-|||||
 x8 | x8 | x8 | x8 | x8 | x8 | x2 =d2 e4 | x8 |] %57
w: ||||||||
V:8
 x8 | z4!p! [E,,E,]2 [E,,E,]2 | !breath!A,,8 | (F,2 D,2 A,,4) | !breath!A,,2 A,B, (C3 B, | %5
w: |Ro di|vsi|pje _ _|san po- gre- be- *|
 A,3 G,) F,2 G,2 | (A,3 G,) F,E, D,2 | E,6 z2 | z4 z2!p! E,2 | (A,3 G, F,G,) (E,D,) | %10
w: * * ni- ju|tvo- * je- * *|mu|pri-|no _ _ _ sjat *|
 (C,2 B,,2)!>(! E,4!>)! | E,8 || x8 ||[M:3/4] x6 ||[M:4/4] x8 ||[M:2/4] x4 ||[M:4/4] x8 | %17
w: Hri- * *|||||||
 z4!mf! C,C, E,2 | A,2 G,2 (F,E, D,2) | !breath!A,6 E,2 | (!>!C,3 D, E,2) D,2 | !breath!C,6 C,2 | %22
w: pla- šča- ni-|ce- ju ob- * *|viv- vo|gro _ _ bje|tja po-|
 F,4!>(! _E,4!>)! | !fermata![A,,E,]8 ||[M:2/4] z2!p! A,G, ||[M:4/4] !>!B,4 F,2 E, D, | %26
w: gre- ba-|et.|Mi- ro|no- si- * *|
 (C,3/2 B,,/ A,,2) (E,2 D,2) ||[M:2/4] C,4 ||[M:4/4] x8 | (A,>B,CB,) A,2 E,E, | %30
w: pri- * * do- *|||mi- * * * ra te- bje|
 (A,2 G,2) F,E, D,2 | E,6 z2 | z4 z2!p! E,2 | (A,3 G,) (F,G,) (F,E,) | (D,2 C,2) E,,4 | [A,,E,]8 || %36
w: Hri- * ste * *|moj,|no-|sja * šči- * ja *|pre- * *|dro.|
 x8 ||[M:2/4] x4 ||[M:4/4] x8 | z4 z2!p! D,D, | A,,4!<(! (F, E, D,2)!<)! | !breath!A,,6 _G,,2 | %42
w: |||po- *|||
 F,, =G,,=A,,B,, E,2 D,2 | =E,2 F,2 !breath!E,2 E,2 | (F,2 D,2) B,,4 | [A,,E,]8 || x8 | x8 | x8 | %49
w: sta _ _ _ _ _|_ _ _ ži-|zno- * *|ca.||||
 x8 | x8 | (A,,3 B,,) !breath!C,2 D,2 | !breath![A,,A,]8 | (D,3 C,) B,,2 D,2 | %54
w: |||do||
 (C, B,, _A,,2 !breath!G,,2) =E,,2 | (F,,2 _F,,2) _E,,4 | [A,,A,]8 |] %57
w: ||ta.|
V:9
 x8 | x8 | x8 | x8 | x8 | x8 | x8 | x8 | x8 | x8 | x4 E,,4 | A,,8 || x8 ||[M:3/4] x6 || %14
w: ||||||||||ste-|moj!|||
[M:4/4] x8 ||[M:2/4] x4 ||[M:4/4] x8 | x8 | x8 | x8 | x8 | x8 | x8 | x8 ||[M:2/4] x4 || %25
w: |||||||||||
[M:4/4] x6 E,2 | E,4 E,4 ||[M:2/4] E,4 ||[M:4/4] x8 | x8 | x8 | x8 | x8 | x8 | x4 E,4 | x8 || x8 || %37
w: ci||ša|||||||mu-|||
[M:2/4] x4 ||[M:4/4] x8 | x4 F, x2 F, | E,4 A,4 | A,6 (_G,2 | ([F,F,]4) F,3) x | [C,C,]6 x2 | %44
w: ||* gre-|bi- tje-|lo Hri-|||
 [F,_E,]4 _E,2 x2 | x8 || x8 | x8 | x8 | x8 | x8 | (A,3 B,) C2 D2 | x8 | (D3 C) B,2 D2 | %54
w: * dav-|||||||mo- * je ča-||gdje * tvo- ja|
 (CB, _A,2 _G,2) =E,2 | (F,2 _F,2) _E,4 | x8 |] %57
w: zaj _ _ _ de|do- * bro||

